src/assets/background/invite-btn.svg

<svg width="354" height="99" viewBox="0 0 354 99" fill="none" xmlns="http://www.w3.org/2000/svg">
<path d="M330.951 96.2405H5.63086L27.9208 37.7305H353.241L330.951 96.2405Z" fill="white"/>
<path d="M325.32 87.3704H0L22.29 28.8604H347.61L325.32 87.3704Z" fill="url(#paint0_linear_1080_42041)"/>
<path d="M74.1628 46.6685L70.7428 71.0645H57.0628L60.4828 46.6685H74.1628ZM44.7508 51.7605H42.1288L42.6608 48.0745H45.8528L46.3848 46.2505L45.2448 44.9205H52.9968L52.0848 48.0745H59.1528L56.1888 69.2785C56.0621 69.9878 55.7201 70.5832 55.1628 71.0645C54.6054 71.5458 53.9594 71.7865 53.2248 71.7865H46.9548L50.2988 68.2905L52.6168 51.7605H51.0208L45.2448 71.7865H38.9368L44.7508 51.7605ZM65.5368 66.8845L67.7788 50.8105H65.7268L63.4848 66.8845H65.5368ZM94.7558 48.8345H84.6098L86.6238 44.8825H100.684L107.372 71.8625H100.152L94.7558 48.8345ZM93.6918 51.0005L82.8238 71.8625H75.6038L86.4718 51.0005H93.6918ZM129.941 47.6565H133.247L133.399 46.7065L131.955 45.2625H139.669L139.327 47.6565H143.963L143.469 51.2665H138.833L138.377 54.3065H142.139L141.645 57.9165H137.883L137.465 60.9565H141.227L140.695 64.5665H136.933L136.515 67.6065H141.189L140.695 71.1785H126.635L126.559 71.7865H120.631L123.557 50.8865L122.341 51.2665L122.949 46.9345L130.397 44.5025L129.941 47.6565ZM114.133 49.4045L114.665 45.6805L113.715 44.5785H121.201L120.517 49.4045H121.771L121.315 52.7865H120.023L119.453 56.8905L120.441 56.5865L119.871 60.5385L118.921 60.8425L117.743 69.3165C117.616 70.0512 117.274 70.6592 116.717 71.1405C116.16 71.5965 115.526 71.8245 114.817 71.8245H108.927L111.473 68.4045L112.233 62.9325L110.067 63.6165L110.637 59.6265L112.765 58.9805L113.639 52.7865H111.625L112.081 49.4045H114.133ZM127.129 67.6065H130.473L130.891 64.5665H127.547L127.129 67.6065ZM128.079 60.9565H131.385L131.803 57.9165H128.497L128.079 60.9565ZM128.991 54.3065H132.335L132.753 51.2665H129.447L128.991 54.3065ZM149.166 48.6065L147.988 47.2765H161.364L161.554 45.9465L160.338 44.5025H169.686L169.268 47.2765H178.578L178.084 50.8865H155.208L150.686 71.8245H144.188L149.166 48.6065ZM205.289 44.5025L201.527 50.3545L212.243 71.8625H205.023L197.499 56.5865L187.695 71.8625H180.475L197.423 45.4525L196.625 44.5025H205.289ZM246.782 57.3085H240.246L238.232 71.7865H231.126L233.14 57.3085H226.186L226.718 53.5085H233.672L234.774 45.8705L233.52 44.5405H242.07L240.778 53.5085H247.314L246.782 57.3085ZM215.508 71.8625L217.864 55.3325H215.28L215.774 51.7225H224.856L222.804 66.3905L226.186 65.8585L225.616 69.7725L215.508 71.8625ZM223.64 45.2245L225.046 50.2785H219.27L217.902 45.2245H223.64ZM254.683 51.4945L253.429 45.9845L251.985 44.5405H259.015L260.573 51.4945H269.123L268.591 55.1425H261.409L262.321 59.0945L267.907 56.1305L267.223 60.8425L263.195 63.0085L264.335 67.9485H266.463L267.793 66.8845L267.071 71.8245H259.433L258.027 65.7825L249.287 70.4185L249.933 65.7065L257.115 61.8685L255.557 55.1425H250.693L251.225 51.4945H254.683ZM283.221 44.5405L279.725 69.3165C279.624 70.0258 279.282 70.6212 278.699 71.1025C278.142 71.5838 277.508 71.8245 276.799 71.8245H270.795L274.139 68.3285L277.217 46.2125L276.419 44.5405H283.221ZM275.887 47.4665L273.265 66.0105H268.249L270.871 47.4665H275.887ZM262.397 48.6065L261.789 45.3005H266.615L267.223 48.6065H262.397Z" fill="white"/>
<path d="M296.14 44.0205H306.82L319.96 57.9505L304.61 72.5905H289L309.64 57.7705L296.14 44.0205Z" fill="white"/>
<defs>
<linearGradient id="paint0_linear_1080_42041" x1="179.99" y1="34.001" x2="347.99" y2="77.001" gradientUnits="userSpaceOnUse">
<stop stop-color="#F30BFF"/>
<stop offset="1" stop-color="#3B1C89"/>
</linearGradient>
</defs>
</svg>

<svg width="354" height="99" fill="none" xmlns="http://www.w3.org/2000/svg"><path d="M330.951 96.24H5.631l22.29-58.51h325.32z" fill="#fff"/><path d="M325.32 87.37H0l22.29-58.51h325.32z" fill="url(#prefix__a)"/><path d="m74.163 46.669-3.42 24.396h-13.68l3.42-24.396zM44.75 51.76h-2.622l.532-3.687h3.192l.532-1.823-1.14-1.33h7.752l-.912 3.154h7.068l-2.964 21.203a3 3 0 0 1-1.026 1.786 2.88 2.88 0 0 1-1.938.723h-6.27l3.344-3.497 2.318-16.53H51.02l-5.776 20.027h-6.308zm20.786 15.124 2.242-16.075h-2.052l-2.242 16.075zm29.219-18.05H84.61l2.014-3.953h14.06l6.688 26.98h-7.22zM93.692 51 82.824 71.863h-7.22L86.472 51zm36.249-3.344h3.306l.152-.95-1.444-1.444h7.714l-.342 2.394h4.636l-.494 3.61h-4.636l-.456 3.04h3.762l-.494 3.61h-3.762l-.418 3.04h3.762l-.532 3.61h-3.762l-.418 3.04h4.674l-.494 3.572h-14.06l-.076.608h-5.928l2.926-20.9-1.216.38.608-4.333 7.448-2.431zm-15.808 1.748.532-3.724-.95-1.102h7.486l-.684 4.825h1.254l-.456 3.382h-1.292l-.57 4.105.988-.304-.57 3.951-.95.305-1.178 8.474a3.02 3.02 0 0 1-1.026 1.824 2.92 2.92 0 0 1-1.9.683h-5.89l2.546-3.42.76-5.471-2.166.684.57-3.99 2.128-.647.874-6.193h-2.014l.456-3.383zm12.996 18.201h3.344l.418-3.04h-3.344zm.95-6.65h3.306l.418-3.04h-3.306zm.912-6.65h3.344l.418-3.04h-3.306zm20.175-5.7-1.178-1.33h13.376l.19-1.33-1.216-1.444h9.348l-.418 2.774h9.31l-.494 3.61h-22.876l-4.522 20.938h-6.498zm56.123-4.104-3.762 5.852 10.716 21.508h-7.22l-7.524-15.275-9.804 15.275h-7.22l16.948-26.41-.798-.95zm41.493 12.807h-6.536l-2.014 14.478h-7.106l2.014-14.479h-6.954l.532-3.8h6.954l1.102-7.638-1.254-1.33h8.55l-1.292 8.968h6.536zm-31.274 14.554 2.356-16.53h-2.584l.494-3.61h9.082l-2.052 14.668 3.382-.532-.57 3.913zm8.132-26.638 1.406 5.054h-5.776l-1.368-5.055zm31.043 6.27-1.254-5.51-1.444-1.444h7.03l1.558 6.954h8.55l-.532 3.648h-7.182l.912 3.951 5.586-2.964-.684 4.712-4.028 2.166 1.14 4.94h2.128l1.33-1.063-.722 4.94h-7.638l-1.406-6.043-8.74 4.636.646-4.712 7.182-3.838-1.558-6.726h-4.864l.532-3.648zm28.538-6.954-3.496 24.776q-.151 1.063-1.026 1.786-.836.721-1.9.722h-6.004l3.344-3.496 3.078-22.116-.798-1.672zm-7.334 2.926-2.622 18.543h-5.016l2.622-18.543zm-13.49 1.14-.608-3.306h4.826l.608 3.305zm33.743-4.586h10.68l13.14 13.93-15.35 14.64H289l20.64-14.82z" fill="#fff"/><defs><linearGradient id="prefix__a" x1="179.99" y1="34.001" x2="347.99" y2="77.001" gradientUnits="userSpaceOnUse"><stop stop-color="#F30BFF"/><stop offset="1" stop-color="#3B1C89"/></linearGradient></defs></svg>
